X:161
T: Kukorít a kakas...
M: 2/4
L: 1/4
K: C
g/d/e/f/ | e<d | 
g/B/d/d/ | cB | 
g/e/ d | d/c/B | 
d/c/B/A/ | G G | 

